src/static/logos/circleci.svg

<?xml version="1.0" encoding="UTF-8" standalone="no"?>
<svg width="256px" height="259px" viewBox="0 0 256 259" version="1.1" xmlns="http://www.w3.org/2000/svg" xmlns:xlink="http://www.w3.org/1999/xlink" preserveAspectRatio="xMidYMid">
	<g fill="#343434">
		<circle cx="126.157031" cy="129.007874" r="30.5932958"></circle>
		<path d="M1.20368953,96.5716086 C1.20368953,96.9402024 0.835095614,97.6773903 0.835095614,98.0459843 C0.835095614,101.36333 3.41525309,104.312081 7.10119236,104.312081 L59.0729359,104.312081 C61.6530934,104.312081 63.496063,102.837706 64.6018448,100.626142 C75.2910686,77.0361305 98.8810798,61.1865916 125.788436,61.1865916 C163.016423,61.1865916 193.241125,91.4112936 193.241125,128.63928 C193.241125,165.867267 163.016423,196.091969 125.788436,196.091969 C98.5124859,196.091969 75.2910686,179.873835 64.6018448,157.021013 C63.496063,154.440855 61.6530934,152.96648 59.0729359,152.96648 L7.10119236,152.96648 C3.78384701,152.96648 0.835095614,155.546637 0.835095614,159.232575 C0.835095614,159.60117 0.835095614,160.338357 1.20368953,160.706952 C15.5788527,216.733228 66.0762205,258.015748 126.157031,258.015748 C197.295658,258.015748 255.164905,200.146502 255.164905,129.007874 C255.164905,57.8692464 197.295658,0 126.157031,0 C66.0762205,0 15.5788527,41.2825197 1.20368953,96.5716086 L1.20368953,96.5716086 Z"></path>
	</g>
</svg>

<svg width="256" height="259" xmlns="http://www.w3.org/2000/svg" preserveAspectRatio="xMidYMid"><g fill="#343434"><circle cx="126.157" cy="129.008" r="30.593"/><path d="M1.204 96.572c0 .368-.369 1.105-.369 1.474 0 3.317 2.58 6.266 6.266 6.266h51.972c2.58 0 4.423-1.474 5.529-3.686 10.69-23.59 34.28-39.44 61.186-39.44 37.228 0 67.453 30.225 67.453 67.453s-30.225 67.453-67.453 67.453c-27.276 0-50.497-16.218-61.186-39.071-1.106-2.58-2.949-4.055-5.53-4.055H7.103c-3.318 0-6.267 2.58-6.267 6.267 0 .368 0 1.105.369 1.474 14.375 56.026 64.872 97.309 124.953 97.309 71.139 0 129.008-57.87 129.008-129.008C255.165 57.869 197.295 0 126.157 0 66.077 0 15.579 41.283 1.204 96.572z"/></g></svg>
